dist/images/icons/facebook_color-login.svg

<svg width="24" height="24" viewBox="0 0 24 24" fill="none" xmlns="http://www.w3.org/2000/svg">
<path d="M12 0C18.6277 0 24 5.373 24 12C24 18.6278 18.6277 24 12 24C5.37217 24 0 18.6277 0 12C0 5.373 5.37225 0 12 0Z" fill="#3B5998"/>
<path d="M13.4612 8.26119H15.0077V5.97668H13.1897V5.98492C10.987 6.06294 10.5355 7.30117 10.4957 8.60168H10.4912V9.74245H8.99121V11.9797H10.4912V17.9766H12.7517V11.9797H14.6035L14.9612 9.74245H12.7524V9.05323C12.7524 8.61371 13.0449 8.26119 13.4612 8.26119Z" fill="white"/>
</svg>

<svg width="24" height="24" fill="none" xmlns="http://www.w3.org/2000/svg"><path d="M12 0c6.628 0 12 5.373 12 12 0 6.628-5.372 12-12 12S0 18.628 0 12C0 5.373 5.372 0 12 0z" fill="#3B5998"/><path d="M13.461 8.261h1.547V5.977H13.19v.008c-2.203.078-2.654 1.316-2.694 2.617h-.005v1.14h-1.5v2.238h1.5v5.997h2.26V11.98h1.853l.357-2.238h-2.209v-.689c0-.44.293-.792.71-.792z" fill="#fff"/></svg>
